packages/ui-icons/svg/Solid/speed-grader.svg

<svg viewBox="0 0 1920 1920" version="1.1" xmlns="http://www.w3.org/2000/svg">
    <path d="M211.733333,1260.088 C228.053333,1392.03467 280.32,1518.11467 362.986667,1624.888 L362.986667,1624.888 L194.346667,1755.55467 C88.2133333,1618.488 21.0133333,1456.14133 0,1286.22133 L0,1286.22133 Z M1865.888,868.504 C1884.768,926.317333 1898.208,986.264 1905.67467,1046.744 C1910.47467,1086.744 1912.82133,1125.89067 1912.82133,1166.53067 C1912.82133,1207.064 1910.47467,1246.21067 1905.67467,1285.99733 C1884.66133,1456.13067 1817.46133,1618.47733 1711.328,1755.544 L1711.328,1755.544 L1542.688,1624.87733 C1625.35467,1518.104 1677.62133,1392.024 1693.94133,1260.07733 C1697.67467,1229.35733 1699.488,1198.31733 1699.488,1166.53067 C1699.488,1134.63733 1697.67467,1103.59733 1693.94133,1072.664 C1688.07467,1026.05067 1677.83467,979.650667 1663.22133,934.850667 L1663.22133,934.850667 Z M1730.76267,446.797333 L1881.58933,597.624 L1006.176,1473.03733 L486.282667,953.144 L637.109333,802.317333 L1006.176,1171.384 L1730.76267,446.797333 Z M194.346667,577.410667 L362.986667,708.077333 C280.32,814.850667 228.053333,940.930667 211.733333,1072.87733 L211.733333,1072.87733 L0,1046.744 C21.0133333,876.824 88.2133333,714.477333 194.346667,577.410667 L194.346667,577.410667 Z M833.141333,213.709333 L859.274667,425.442667 C727.221333,441.656 601.141333,494.029333 494.474667,576.696 L494.474667,576.696 L363.701333,408.056 C500.768,301.922667 663.008,234.616 833.141333,213.709333 L833.141333,213.709333 Z M1072.59733,213.698667 C1242.624,234.712 1404.97067,301.912 1541.93067,408.045333 L1541.93067,408.045333 L1411.15733,576.685333 C1304.59733,494.018667 1178.41067,441.645333 1046.464,425.432 L1046.464,425.432 Z" stroke="none" stroke-width="1" fill-rule="evenodd"/>
</svg>

<svg viewBox="0 0 1920 1920" xmlns="http://www.w3.org/2000/svg">
    <path d="M211.733 1260.088c16.32 131.947 68.587 258.027 151.254 364.8l-168.64 130.667C88.213 1618.488 21.013 1456.14 0 1286.22Zm1654.155-391.584c18.88 57.813 32.32 117.76 39.787 178.24 4.8 40 7.146 79.147 7.146 119.787 0 40.533-2.346 79.68-7.146 119.466-21.014 170.134-88.214 332.48-194.347 469.547l-168.64-130.667c82.667-106.773 134.933-232.853 151.253-364.8 3.734-30.72 5.547-61.76 5.547-93.546 0-31.894-1.813-62.934-5.547-93.867-5.866-46.613-16.106-93.013-30.72-137.813Zm-135.125-421.707 150.826 150.827-875.413 875.413-519.893-519.893 150.826-150.827 369.067 369.067 724.587-724.587ZM194.347 577.411l168.64 130.666c-82.667 106.774-134.934 232.854-151.254 364.8L0 1046.744c21.013-169.92 88.213-332.267 194.347-469.333ZM833.14 213.709l26.134 211.734c-132.054 16.213-258.134 68.586-364.8 151.253L363.7 408.056c137.067-106.133 299.307-173.44 469.44-194.347Zm239.456-.01c170.027 21.013 332.374 88.213 469.334 194.346l-130.774 168.64c-106.56-82.666-232.746-135.04-364.693-151.253Z" fill-rule="evenodd"/>
</svg>
